X:10
T:Helen Scott of Humbie
C:Freeland Barbour
R:waltz
O:SCO
M:3/4
K:G
D2|"G"G3A Bd|"C"e4 "G"(dB)|"D7"(A3 B) "C"G2|"G"G4 (Bd)|"C"e3d e&amp;lt;g|"G"(B3A)G2|"Am"(A6|A4) "G"(Bd)|"C"e3d e&amp;lt;g|"G"B4 (dB)|"Am"A2 "Em"(B3G)|"C"E2 "D"D2 DE|"G"G3 e de|"G"B2 "D"(A3B)|"C"G4 G2|"G"G4 D2||"G"G3e de|"Em"B3 e de|"G"G2 (B3 G)|"C"E2 "D"D2 DE|"G"G3 e de|"Em"B3 A "G"Bd|"Em"e3f ed|e4 (ef)|"C"g3f eg|"G"B4 (dB)|"Am"A2 "Em"(B3 G)|"C"E2 "D"D2 de|"C"G2 e3 d/2e/2|"G"B2 "D"(A3B)|"C"G4 G2|"G"G4||
